X: 34789
T: Road To Skye, The
R: jig
M: 6/8
K: Gmajor
~G3 EGD|GBd e2f|gdc ~B3|cBc E2D|
GFG E/F/GD|GBd e2f|gdc ~B3|cAF G2F:|
|:GBd GBd|GBd cAF|GBd eag|fd^c def|
gbg ~f3|e/f/ge dBG|cBc Adc|BGF GBA:|

